X: 675
T: the Bonnie Boy   #2
R: reel
%S: s:2 b:12(6+6)
B: Francis O'Neill: "The Dance Music of Ireland" (1907) #675
Z: Frank Nordberg - http://www.musicaviva.com
F: http://www.musicaviva.com/abc/tunes/ireland/oneill-1001/0675/oneill-1001-0675-1.abc
M: C|
L: 1/8
K: A
"^A"[|]\
  (ed) |: cBAa (3(fga)  ec  | dfec B2(Bd) |[1 cBAa (3(fga) ec | dfec A2(Ad) :| cefg agbg | afed cAA |]
"^B"\
|:: d | (3(cBA) (ec) fAeA |[1 (3(cBA) (ec) B2B :|[2 dfed cAA :|[3 dfec B2(Bd) |] cefg agbg | afec A2 |]
